images/3235042.svg

<?xml version="1.0" encoding="UTF-8"?>
<svg xmlns="http://www.w3.org/2000/svg" xmlns:xlink="http://www.w3.org/1999/xlink" width="300pt" height="300pt" viewBox="0 0 300 300" version="1.1">
<defs>
<g>
<symbol overflow="visible" id="glyph0-0">
<path style="stroke:none;" d="M 0.640625 2.296875 L 0.640625 -9.171875 L 7.140625 -9.171875 L 7.140625 2.296875 Z M 1.375 1.578125 L 6.421875 1.578125 L 6.421875 -8.4375 L 1.375 -8.4375 Z M 1.375 1.578125 "/>
</symbol>
<symbol overflow="visible" id="glyph0-1">
<path style="stroke:none;" d="M 1.28125 -9.484375 L 3 -9.484375 L 7.203125 -1.546875 L 7.203125 -9.484375 L 8.453125 -9.484375 L 8.453125 0 L 6.71875 0 L 2.515625 -7.921875 L 2.515625 0 L 1.28125 0 Z M 1.28125 -9.484375 "/>
</symbol>
<symbol overflow="visible" id="glyph0-2">
<path style="stroke:none;" d="M 1.28125 -9.484375 L 6.71875 -9.484375 L 6.71875 -8.390625 L 2.5625 -8.390625 L 2.5625 -5.609375 L 6.3125 -5.609375 L 6.3125 -4.53125 L 2.5625 -4.53125 L 2.5625 0 L 1.28125 0 Z M 1.28125 -9.484375 "/>
</symbol>
</g>
</defs>
<g id="surface51709">
<rect x="0" y="0" width="300" height="300" style="fill:rgb(100%,100%,100%);fill-opacity:1;stroke:none;"/>
<path style="fill:none;stroke-width:1.2;stroke-linecap:butt;stroke-linejoin:miter;stroke:rgb(0%,0%,0%);stroke-opacity:1;stroke-miterlimit:10;" d="M 38.839844 166.121094 L 35.25 132.617188 "/>
<path style="fill:none;stroke-width:1.2;stroke-linecap:butt;stroke-linejoin:miter;stroke:rgb(0%,0%,0%);stroke-opacity:1;stroke-miterlimit:10;" d="M 46.367188 161.925781 L 43.492188 135.121094 "/>
<path style="fill:none;stroke-width:1.2;stroke-linecap:butt;stroke-linejoin:miter;stroke:rgb(0%,0%,0%);stroke-opacity:1;stroke-miterlimit:10;" d="M 69.652344 179.761719 L 38.839844 166.121094 "/>
<path style="fill:none;stroke-width:1.2;stroke-linecap:butt;stroke-linejoin:miter;stroke:rgb(0%,0%,0%);stroke-opacity:1;stroke-miterlimit:10;" d="M 35.25 132.617188 L 62.46875 112.753906 "/>
<path style="fill:none;stroke-width:1.2;stroke-linecap:butt;stroke-linejoin:miter;stroke:rgb(0%,0%,0%);stroke-opacity:1;stroke-miterlimit:10;" d="M 62.46875 112.753906 L 93.28125 126.394531 "/>
<path style="fill:none;stroke-width:1.2;stroke-linecap:butt;stroke-linejoin:miter;stroke:rgb(0%,0%,0%);stroke-opacity:1;stroke-miterlimit:10;" d="M 62.339844 121.367188 L 86.988281 132.28125 "/>
<path style="fill:none;stroke-width:1.2;stroke-linecap:butt;stroke-linejoin:miter;stroke:rgb(0%,0%,0%);stroke-opacity:1;stroke-miterlimit:10;" d="M 93.28125 126.394531 L 96.871094 159.898438 "/>
<path style="fill:none;stroke-width:1.2;stroke-linecap:butt;stroke-linejoin:miter;stroke:rgb(0%,0%,0%);stroke-opacity:1;stroke-miterlimit:10;" d="M 93.28125 126.394531 L 120.5 106.53125 "/>
<path style="fill:none;stroke-width:1.2;stroke-linecap:butt;stroke-linejoin:miter;stroke:rgb(0%,0%,0%);stroke-opacity:1;stroke-miterlimit:10;" d="M 96.871094 159.898438 L 69.652344 179.761719 "/>
<path style="fill:none;stroke-width:1.2;stroke-linecap:butt;stroke-linejoin:miter;stroke:rgb(0%,0%,0%);stroke-opacity:1;stroke-miterlimit:10;" d="M 89.476562 155.480469 L 67.699219 171.371094 "/>
<path style="fill:none;stroke-width:1.2;stroke-linecap:butt;stroke-linejoin:miter;stroke:rgb(0%,0%,0%);stroke-opacity:1;stroke-miterlimit:10;" d="M 96.871094 159.898438 L 127.683594 173.539062 "/>
<path style="fill:none;stroke-width:1.2;stroke-linecap:butt;stroke-linejoin:miter;stroke:rgb(0%,0%,0%);stroke-opacity:1;stroke-miterlimit:10;" d="M 127.683594 173.539062 L 129.476562 190.292969 "/>
<path style="fill:none;stroke-width:1.2;stroke-linecap:butt;stroke-linejoin:miter;stroke:rgb(0%,0%,100%);stroke-opacity:1;stroke-miterlimit:10;" d="M 129.476562 190.292969 L 131.273438 207.042969 "/>
<path style="fill:none;stroke-width:1.2;stroke-linecap:butt;stroke-linejoin:miter;stroke:rgb(0%,0%,0%);stroke-opacity:1;stroke-miterlimit:10;" d="M 135.925781 176.046875 L 137.363281 189.449219 "/>
<path style="fill:none;stroke-width:1.2;stroke-linecap:butt;stroke-linejoin:miter;stroke:rgb(0%,0%,100%);stroke-opacity:1;stroke-miterlimit:10;" d="M 137.363281 189.449219 L 138.796875 202.847656 "/>
<path style="fill:none;stroke-width:1.2;stroke-linecap:butt;stroke-linejoin:miter;stroke:rgb(0%,0%,100%);stroke-opacity:1;stroke-miterlimit:10;" d="M 154.902344 153.679688 L 141.292969 163.609375 "/>
<path style="fill:none;stroke-width:1.2;stroke-linecap:butt;stroke-linejoin:miter;stroke:rgb(0%,0%,0%);stroke-opacity:1;stroke-miterlimit:10;" d="M 141.292969 163.609375 L 127.683594 173.539062 "/>
<path style="fill:none;stroke-width:1.2;stroke-linecap:butt;stroke-linejoin:miter;stroke:rgb(0%,0%,100%);stroke-opacity:1;stroke-miterlimit:10;" d="M 131.273438 207.042969 L 146.679688 213.867188 "/>
<path style="fill:none;stroke-width:1.2;stroke-linecap:butt;stroke-linejoin:miter;stroke:rgb(0%,0%,0%);stroke-opacity:1;stroke-miterlimit:10;" d="M 146.679688 213.867188 L 162.085938 220.6875 "/>
<path style=" stroke:none;fill-rule:nonzero;fill:rgb(100%,100%,100%);fill-opacity:1;" d="M 126.273438 199.042969 L 136.273438 199.042969 L 136.273438 215.042969 L 126.273438 215.042969 Z M 126.273438 199.042969 "/>
<g style="fill:rgb(0%,0%,100%);fill-opacity:1;">
  <use xlink:href="#glyph0-1" x="126.273438" y="211.418945"/>
</g>
<path style="fill:none;stroke-width:1.2;stroke-linecap:butt;stroke-linejoin:miter;stroke:rgb(0%,0%,0%);stroke-opacity:1;stroke-miterlimit:10;" d="M 162.085938 220.6875 L 189.304688 200.824219 "/>
<path style="fill:none;stroke-width:1.2;stroke-linecap:butt;stroke-linejoin:miter;stroke:rgb(0%,0%,0%);stroke-opacity:1;stroke-miterlimit:10;" d="M 160.132812 212.296875 L 181.910156 196.40625 "/>
<path style="fill:none;stroke-width:1.2;stroke-linecap:butt;stroke-linejoin:miter;stroke:rgb(0%,0%,0%);stroke-opacity:1;stroke-miterlimit:10;" d="M 189.304688 200.824219 L 185.710938 167.320312 "/>
<path style="fill:none;stroke-width:1.2;stroke-linecap:butt;stroke-linejoin:miter;stroke:rgb(0%,0%,0%);stroke-opacity:1;stroke-miterlimit:10;" d="M 185.710938 167.320312 L 170.308594 160.5 "/>
<path style="fill:none;stroke-width:1.2;stroke-linecap:butt;stroke-linejoin:miter;stroke:rgb(0%,0%,100%);stroke-opacity:1;stroke-miterlimit:10;" d="M 170.308594 160.5 L 154.902344 153.679688 "/>
<path style="fill:none;stroke-width:1.2;stroke-linecap:butt;stroke-linejoin:miter;stroke:rgb(0%,0%,0%);stroke-opacity:1;stroke-miterlimit:10;" d="M 179.421875 173.207031 L 167.097656 167.75 "/>
<path style="fill:none;stroke-width:1.2;stroke-linecap:butt;stroke-linejoin:miter;stroke:rgb(0%,0%,100%);stroke-opacity:1;stroke-miterlimit:10;" d="M 167.097656 167.75 L 154.773438 162.292969 "/>
<path style="fill:none;stroke-width:1.2;stroke-linecap:butt;stroke-linejoin:miter;stroke:rgb(0%,0%,0%);stroke-opacity:1;stroke-miterlimit:10;" d="M 185.710938 167.320312 L 199.324219 157.390625 "/>
<path style="fill:none;stroke-width:1.2;stroke-linecap:butt;stroke-linejoin:miter;stroke:rgb(0%,0%,100%);stroke-opacity:1;stroke-miterlimit:10;" d="M 199.324219 157.390625 L 212.933594 147.457031 "/>
<path style=" stroke:none;fill-rule:nonzero;fill:rgb(100%,100%,100%);fill-opacity:1;" d="M 149.902344 145.679688 L 159.902344 145.679688 L 159.902344 161.679688 L 149.902344 161.679688 Z M 149.902344 145.679688 "/>
<g style="fill:rgb(0%,0%,100%);fill-opacity:1;">
  <use xlink:href="#glyph0-1" x="149.902344" y="158.055664"/>
</g>
<path style="fill:none;stroke-width:1.2;stroke-linecap:butt;stroke-linejoin:miter;stroke:rgb(0%,0%,100%);stroke-opacity:1;stroke-miterlimit:10;" d="M 212.933594 147.457031 L 212.898438 130.609375 "/>
<path style="fill:none;stroke-width:1.2;stroke-linecap:butt;stroke-linejoin:miter;stroke:rgb(0%,0%,0%);stroke-opacity:1;stroke-miterlimit:10;" d="M 212.898438 130.609375 L 212.863281 113.761719 "/>
<path style="fill:none;stroke-width:1.2;stroke-linecap:butt;stroke-linejoin:miter;stroke:rgb(0%,0%,0%);stroke-opacity:1;stroke-miterlimit:10;" d="M 245 157.804688 L 228.964844 152.632812 "/>
<path style="fill:none;stroke-width:1.2;stroke-linecap:butt;stroke-linejoin:miter;stroke:rgb(0%,0%,100%);stroke-opacity:1;stroke-miterlimit:10;" d="M 228.964844 152.632812 L 212.933594 147.457031 "/>
<path style=" stroke:none;fill-rule:nonzero;fill:rgb(100%,100%,100%);fill-opacity:1;" d="M 207.933594 139.457031 L 217.933594 139.457031 L 217.933594 155.457031 L 207.933594 155.457031 Z M 207.933594 139.457031 "/>
<g style="fill:rgb(0%,0%,100%);fill-opacity:1;">
  <use xlink:href="#glyph0-1" x="207.933594" y="151.833008"/>
</g>
<path style="fill:none;stroke-width:1.2;stroke-linecap:butt;stroke-linejoin:miter;stroke:rgb(0%,0%,0%);stroke-opacity:1;stroke-miterlimit:10;" d="M 212.863281 113.761719 L 244.886719 103.285156 "/>
<path style="fill:none;stroke-width:1.2;stroke-linecap:butt;stroke-linejoin:miter;stroke:rgb(0%,0%,0%);stroke-opacity:1;stroke-miterlimit:10;" d="M 218.53125 120.25 L 244.152344 111.867188 "/>
<path style="fill:none;stroke-width:1.2;stroke-linecap:butt;stroke-linejoin:miter;stroke:rgb(0%,0%,0%);stroke-opacity:1;stroke-miterlimit:10;" d="M 244.886719 103.285156 L 254.820312 116.894531 "/>
<path style="fill:none;stroke-width:1.2;stroke-linecap:butt;stroke-linejoin:miter;stroke:rgb(0%,0%,100%);stroke-opacity:1;stroke-miterlimit:10;" d="M 254.820312 116.894531 L 264.75 130.503906 "/>
<path style="fill:none;stroke-width:1.2;stroke-linecap:butt;stroke-linejoin:miter;stroke:rgb(0%,0%,100%);stroke-opacity:1;stroke-miterlimit:10;" d="M 264.75 130.503906 L 254.875 144.152344 "/>
<path style="fill:none;stroke-width:1.2;stroke-linecap:butt;stroke-linejoin:miter;stroke:rgb(0%,0%,0%);stroke-opacity:1;stroke-miterlimit:10;" d="M 254.875 144.152344 L 245 157.804688 "/>
<path style="fill:none;stroke-width:1.2;stroke-linecap:butt;stroke-linejoin:miter;stroke:rgb(0%,0%,100%);stroke-opacity:1;stroke-miterlimit:10;" d="M 256.351562 128.585938 L 248.453125 139.507812 "/>
<path style="fill:none;stroke-width:1.2;stroke-linecap:butt;stroke-linejoin:miter;stroke:rgb(0%,0%,0%);stroke-opacity:1;stroke-miterlimit:10;" d="M 248.453125 139.507812 L 240.550781 150.429688 "/>
<path style=" stroke:none;fill-rule:nonzero;fill:rgb(100%,100%,100%);fill-opacity:1;" d="M 259.75 122.503906 L 269.75 122.503906 L 269.75 138.503906 L 259.75 138.503906 Z M 259.75 122.503906 "/>
<g style="fill:rgb(0%,0%,100%);fill-opacity:1;">
  <use xlink:href="#glyph0-1" x="259.75" y="134.879883"/>
</g>
<path style="fill:none;stroke-width:1.2;stroke-linecap:butt;stroke-linejoin:miter;stroke:rgb(0%,0%,0%);stroke-opacity:1;stroke-miterlimit:10;" d="M 120.5 106.53125 L 134.109375 96.601562 "/>
<path style="fill:none;stroke-width:1.2;stroke-linecap:butt;stroke-linejoin:miter;stroke:rgb(20%,80%,80%);stroke-opacity:1;stroke-miterlimit:10;" d="M 134.109375 96.601562 L 147.71875 86.671875 "/>
<path style="fill:none;stroke-width:1.2;stroke-linecap:butt;stroke-linejoin:miter;stroke:rgb(0%,0%,0%);stroke-opacity:1;stroke-miterlimit:10;" d="M 120.5 106.53125 L 130.429688 120.144531 "/>
<path style="fill:none;stroke-width:1.2;stroke-linecap:butt;stroke-linejoin:miter;stroke:rgb(20%,80%,80%);stroke-opacity:1;stroke-miterlimit:10;" d="M 130.429688 120.144531 L 140.363281 133.753906 "/>
<path style="fill:none;stroke-width:1.2;stroke-linecap:butt;stroke-linejoin:miter;stroke:rgb(0%,0%,0%);stroke-opacity:1;stroke-miterlimit:10;" d="M 120.5 106.53125 L 110.570312 92.921875 "/>
<path style="fill:none;stroke-width:1.2;stroke-linecap:butt;stroke-linejoin:miter;stroke:rgb(20%,80%,80%);stroke-opacity:1;stroke-miterlimit:10;" d="M 110.570312 92.921875 L 100.636719 79.3125 "/>
<path style=" stroke:none;fill-rule:nonzero;fill:rgb(100%,100%,100%);fill-opacity:1;" d="M 143.71875 78.671875 L 151.71875 78.671875 L 151.71875 94.671875 L 143.71875 94.671875 Z M 143.71875 78.671875 "/>
<g style="fill:rgb(20%,80%,80%);fill-opacity:1;">
  <use xlink:href="#glyph0-2" x="143.71875" y="91.047852"/>
</g>
<path style=" stroke:none;fill-rule:nonzero;fill:rgb(100%,100%,100%);fill-opacity:1;" d="M 136.363281 125.753906 L 144.363281 125.753906 L 144.363281 141.753906 L 136.363281 141.753906 Z M 136.363281 125.753906 "/>
<g style="fill:rgb(20%,80%,80%);fill-opacity:1;">
  <use xlink:href="#glyph0-2" x="136.363281" y="138.129883"/>
</g>
<path style=" stroke:none;fill-rule:nonzero;fill:rgb(100%,100%,100%);fill-opacity:1;" d="M 92.636719 71.3125 L 100.636719 71.3125 L 100.636719 87.3125 L 92.636719 87.3125 Z M 92.636719 71.3125 "/>
<g style="fill:rgb(20%,80%,80%);fill-opacity:1;">
  <use xlink:href="#glyph0-2" x="92.636719" y="83.688477"/>
</g>
</g>
</svg>

<svg xmlns="http://www.w3.org/2000/svg" xmlns:xlink="http://www.w3.org/1999/xlink" width="300pt" height="300pt" viewBox="0 0 300 300"><defs><symbol overflow="visible"><path d="M.64 2.297v-11.47h6.5v11.47zm.735-.72h5.047V-8.436H1.375zm0 0"/></symbol><symbol overflow="visible" id="a"><path d="M1.28-9.484H3l4.203 7.937v-7.937h1.25V0H6.72L2.515-7.922V0H1.28zm0 0"/></symbol><symbol overflow="visible" id="b"><path d="M1.28-9.484h5.44v1.093H2.562v2.78h3.75v1.08h-3.75V0H1.28zm0 0"/></symbol></defs><g><path fill="#fff" d="M0 0h300v300H0z"/><path d="M38.84 166.12l-3.59-33.503M46.367 161.926l-2.875-26.805M69.652 179.762l-30.812-13.64M35.25 132.617l27.22-19.863M62.47 112.754l30.81 13.64M62.34 121.367l24.648 10.914M93.28 126.395l3.59 33.503M93.28 126.395l27.22-19.864M96.87 159.898l-27.218 19.864M89.477 155.48L67.7 171.37M96.87 159.898l30.814 13.64M127.684 173.54l1.793 16.753" stroke-width="1.2" stroke="#000" stroke-miterlimit="10" fill="none"/><path d="M129.477 190.293l1.796 16.75" stroke-width="1.2" stroke="#00f" stroke-miterlimit="10" fill="none"/><path d="M135.926 176.047l1.437 13.402" stroke-width="1.2" stroke="#000" stroke-miterlimit="10" fill="none"/><path d="M137.363 189.45l1.434 13.398M154.902 153.68l-13.61 9.93" stroke-width="1.2" stroke="#00f" stroke-miterlimit="10" fill="none"/><path d="M141.293 163.61l-13.61 9.93" stroke-width="1.2" stroke="#000" stroke-miterlimit="10" fill="none"/><path d="M131.273 207.043l15.407 6.824" stroke-width="1.2" stroke="#00f" stroke-miterlimit="10" fill="none"/><path d="M146.68 213.867l15.406 6.82" stroke-width="1.2" stroke="#000" stroke-miterlimit="10" fill="none"/><path d="M126.273 199.043h10v16h-10zm0 0" fill="#fff"/><use xlink:href="#a" x="126.273" y="211.419" fill="#00f"/><path d="M162.086 220.688l27.22-19.864M160.133 212.297l21.777-15.89M189.305 200.824l-3.594-33.504M185.71 167.32l-15.4-6.82" stroke-width="1.2" stroke="#000" stroke-miterlimit="10" fill="none"/><path d="M170.31 160.5l-15.408-6.82" stroke-width="1.2" stroke="#00f" stroke-miterlimit="10" fill="none"/><path d="M179.422 173.207l-12.324-5.457" stroke-width="1.2" stroke="#000" stroke-miterlimit="10" fill="none"/><path d="M167.098 167.75l-12.325-5.457" stroke-width="1.2" stroke="#00f" stroke-miterlimit="10" fill="none"/><path d="M185.71 167.32l13.614-9.93" stroke-width="1.2" stroke="#000" stroke-miterlimit="10" fill="none"/><path d="M199.324 157.39l13.61-9.933" stroke-width="1.2" stroke="#00f" stroke-miterlimit="10" fill="none"/><path d="M149.902 145.68h10v16h-10zm0 0" fill="#fff"/><use xlink:href="#a" x="149.902" y="158.056" fill="#00f"/><path d="M212.934 147.457l-.036-16.848" stroke-width="1.2" stroke="#00f" stroke-miterlimit="10" fill="none"/><path d="M212.898 130.61l-.035-16.848M245 157.805l-16.035-5.172" stroke-width="1.2" stroke="#000" stroke-miterlimit="10" fill="none"/><path d="M228.965 152.633l-16.03-5.176" stroke-width="1.2" stroke="#00f" stroke-miterlimit="10" fill="none"/><path d="M207.934 139.457h10v16h-10zm0 0" fill="#fff"/><use xlink:href="#a" x="207.934" y="151.833" fill="#00f"/><path d="M212.863 113.762l32.024-10.477M218.53 120.25l25.622-8.383M244.887 103.285l9.933 13.61" stroke-width="1.2" stroke="#000" stroke-miterlimit="10" fill="none"/><path d="M254.82 116.895l9.93 13.61M264.75 130.504l-9.875 13.648" stroke-width="1.2" stroke="#00f" stroke-miterlimit="10" fill="none"/><path d="M254.875 144.152L245 157.805" stroke-width="1.2" stroke="#000" stroke-miterlimit="10" fill="none"/><path d="M256.352 128.586l-7.9 10.922" stroke-width="1.2" stroke="#00f" stroke-miterlimit="10" fill="none"/><path d="M248.453 139.508l-7.902 10.922" stroke-width="1.2" stroke="#000" stroke-miterlimit="10" fill="none"/><path d="M259.75 122.504h10v16h-10zm0 0" fill="#fff"/><use xlink:href="#a" x="259.75" y="134.88" fill="#00f"/><path d="M120.5 106.53l13.61-9.928" stroke-width="1.2" stroke="#000" stroke-miterlimit="10" fill="none"/><path d="M134.11 96.602l13.61-9.93" stroke-width="1.2" stroke="#3cc" stroke-miterlimit="10" fill="none"/><path d="M120.5 106.53l9.93 13.615" stroke-width="1.2" stroke="#000" stroke-miterlimit="10" fill="none"/><path d="M130.43 120.145l9.933 13.61" stroke-width="1.2" stroke="#3cc" stroke-miterlimit="10" fill="none"/><path d="M120.5 106.53l-9.93-13.608" stroke-width="1.2" stroke="#000" stroke-miterlimit="10" fill="none"/><path d="M110.57 92.922l-9.933-13.61" stroke-width="1.2" stroke="#3cc" stroke-miterlimit="10" fill="none"/><path d="M143.72 78.672h8v16h-8zm0 0" fill="#fff"/><use xlink:href="#b" x="143.719" y="91.048" fill="#3cc"/><path d="M136.363 125.754h8v16h-8zm0 0" fill="#fff"/><use xlink:href="#b" x="136.363" y="138.13" fill="#3cc"/><path d="M92.637 71.313h8v16h-8zm0 0" fill="#fff"/><use xlink:href="#b" x="92.637" y="83.688" fill="#3cc"/></g></svg>
